/* XPM */
static char *ea_holder[] = {
/* columns rows colors chars-per-pixel */
"64 64 6 1 ",
"  c #302008",
". c #B8860B",
"X c #DAA520",
"o c #C8960F",
"L c #FFFFFF",
"K c #000000",
/* pixels */
"oooo.ooXXoo oo..oooooXXo ooXXXooooXXXoo oXXooooo..oo ooXXoo.ooo ",
"oooX...oooX oooXXooooXoo ooooXooooXoooo ooXooooXXooo Xooo...Xoo ",
"                                                                ",
"oooooo oooooooooooooo oo.oooooooooooooo.oo oooooooooooooo oooooo",
"ooX..o ooo.........oo o.o.o....oo....o.o.o oo.........ooo o..Xoo",
"oX..oo oooooX.Xoooooo o..ooooXooooXoooo..o ooooooX.Xooooo oo..Xo",
"oooooo oooooooooooooo oo..oooooooooooo..oo oooooooooooooo oooooo",
"                                                                ",
" .ooooooooX oooooooooooo oooooooooooooo oooooooooooo Xoooooooo.o",
" .....oooXX .oo.Xoooo..o oo.o..oo..o.oo o..ooooX.oo. XXooo.....o",
" oooo..XXXo ooXXKKKKKKKKKKKKKKKKKKKKKKKKKKKKKKKKXXoo oXXX..ooooo",
" oooooooooo ooXoKLLLLLLLLLLLLLLLLLLLLLLLLLLLLLLKoXoo ooooooooooo",
"                KLLLLLLLLLLLLLLLLLLLLLLLLLLLLLLK                ",
"oooooo oooo..oooKLLLLLLLLLLLLLLLLLLLLLLLLLLLLLLKooo..oooo oooooo",
"oooXoo oo.o.ooXXKLLLLLLLLLLLLLLLLLLLLLLLLLLLLLLKXXoo.o.oo ooXooo",
"..X..o oooo..XXoKLLLLLLLLLLLLLLLLLLLLLLLLLLLLLLKoXX..oooo o..X..",
"ooooo. oooooooooKLLLLLLLLLLLLLLLLLLLLLLLLLLLLLLKooooooooo .ooooo",
"                KKKKKKKKKKKKKKKKKKKKKKKKKLLLLLLK                ",
"ooooo.ooo.o oooooooooooo o..oooooooo..o KLLLLLLKoooo o.ooo.oooo ",
"oooo.Xooooo ooooo.oooooo oooXo.oo.oXooo KLLLLLLKoooo oooooX.ooo ",
"ooo.X.oXXXo oo..o.oooXoo ooXX..oo..XXoo KLLLLLLK..oo oXXXo.X.oo ",
"oooo.ooooXo ooo.o...oXXo o..o.oooo.o..o KLLLLLLK.ooo oXoooo.ooo ",
"                                        KLLLLLLK                ",
"oooooo oooooooooooooo oo...oooooooooo...KLLLLLLKooooooooo oooooo",
"oo.ooo ooooo.oX.XXXoo ooooXXXo....oXXXooKLLLLLLK.Xo.ooooo ooo.oo",
"XX..oo oo.o..oo..oXXo ooXXXooo....oooXXXKLLLLLLK.oo..o.oo oo..XX",
"Xooooo ooooooooooo.oo oXXooo...oo...oooXKLLLLLLKooooooooo oooooX",
"                                        KLLLLLLK                ",
" oo...oooXo ooooooooooKKKKKKKKKKKKKKKKKKKLLLLLLKoooo oXooo...ooo",
" .oo..Xoooo ooX..ooX.XKLLLLLLLLLLLLLLLLLLLLLLLLK.Xoo ooooX..oo..",
" ........oo ooooooooooKLLLLLLLLLLLLLLLLLLLLLLLLKoooo oo........o",
" ooooooo... .o........KLLLLLLLLLLLLLLLLLLLLLLLLK.oo. oo.oooooooo",
"                      KLLLLLLLLLLLLLLLLLLLLLLLLK                ",
"o....o ..oooooooooooo KLLLLLLLLLLLLLLLLLLLLLLLLKooooooo.. .....o",
"o.oo.. oooooooX..ooX. KLLLLLLLLLLLLLLLLLLLLLLLLK.Xooooooo ..oo..",
"ooo... ooXooooooooooo KKKKKKKKKKKKKKKKKKKLLLLLLKooooooXoo ...ooo",
"                                        KLLLLLLK                ",
"Xoooooooooo oooooo.ooooXXooo... o...oooXKLLLLLLKoooo oooooooooo ",
"XX..ooooo.o .oo..oXXooooXXXooo. ..oooXXXKLLLLLLK.oo. o.ooooo..X ",
"oo.oooooooo .oX.XXXoooooooXXXo. ..oXXXooKLLLLLLK.Xo. oooooooo.o ",
"ooooooooooo oooooooooooo...oooo ooooo...KLLLLLLKoooo oooooooooo ",
"                                        KLLLLLLK                ",
"oooo.o ooXooooo.o...o Xooo..o.oooo.o..ooKLLLLLLK.oooooXoo o.oooo",
"ooo.X. XXXoooo..o.ooo oooooXX..oo..XXoooKLLLLLLK..ooooXXX .X.ooo",
"oooo.X oooooooooo.ooo ooooooXo.oo.oXooooKLLLLLLKooooooooo X.oooo",
"ooooo. oo.ooooooooooo oooo..oooooooo..ooKLLLLLLKoooooo.oo .ooooo",
"                KKKKKKKKKKKKKKKKKKKKKKKKKLLLLLLK                ",
" oooo.ooooo ooooKLLLLLLLLLLLLLLLLLLLLLLLLLLLLLLKoooo ooooo.ooooo",
" .X..oooooo .XXoKLLLLLLLLLLLLLLLLLLLLLLLLLLLLLLKoXX. oooooo..X..",
" ooXooooo.o ooXXKLLLLLLLLLLLLLLLLLLLLLLLLLLLLLLKXXoo o.oooooXooo",
" oooooooooo .oooKLLLLLLLLLLLLLLLLLLLLLLLLLLLLLLKooo. ooooooooooo",
"                KLLLLLLLLLLLLLLLLLLLLLLLLLLLLLLK                ",
"oooooo oooooooXoKLLLLLLLLLLLLLLLLLLLLLLLLLLLLLLKoXooooooo oooooo",
"ooooo. XXXooooXXKKKKKKKKKKKKKKKKKKKKKKKKKKKKKKKKXXooooXXX .ooooo",
"o..... ooXXo.oo.Xoooo .oooo.o..oo..o.oooo. ooooX.oo.oXXoo .....o",
"o.oooo oooXoooooooooo oooooooooooooooooooo ooooooooooXooo oooo.o",
"                                                                ",
"ooooooooooo oooooooooooo..ooooo oooooo..oooooooooooo oooooooooo ",
"oX..ooooooo X.Xoooooooo..ooooXo ooXoooo..ooooooooX.X ooooooo..X ",
"ooX..ooooo. .......oooo.o.o.... o....o.o.oooo....... .ooooo..Xo ",
"ooooooooooo oooooooooooo.oooooo ooooooo.oooooooooooo oooooooooo ",
"                                                                ",
"oooX...oooXooooXXoooo oooooooXooooXooooooo ooooXXooooXooo ..Xooo",
"oooo.ooXXooooo..ooooo XooooXXXooooXXXooooX ooooo..oooooXX o.oooo"
};
