/* XPM */
static char *_d71c6c9bcc943a6bf40f69ab703ddee9rYtMHKrPAwOOD8q[] = {
/* columns rows colors chars-per-pixel */
"64 64 2 1 ",
"  c black",
". c #FBF236",
/* pixels */
"................................................................",
"................................................................",
"................................................................",
"................................................................",
"................................................................",
"................................................................",
"................................................................",
"................................................................",
"................................................................",
"................................................................",
"................................................................",
"................................................................",
"................................................................",
".......................                                .........",
"....................... ........................................",
"....................... ........................................",
"....................... ........................................",
"....................... ........................................",
"....................... ........................................",
"....................... ........................................",
"....................... ........................................",
"....................... ........................................",
"....................... ........................................",
"....................... ........................................",
"....................... ........................................",
"....................... ........................................",
"....................... ........................................",
"....................... ........................................",
"....................... ........................................",
"........................ .......................................",
"........................ .......................................",
"........................ .......................................",
"........................ .......................................",
"........................ ..................              .......",
"........................ .                 .....................",
"........................ .......................................",
"........................ .......................................",
"........................ .......................................",
"........................ .......................................",
"........................ .......................................",
"........................ .......................................",
"........................ .......................................",
"........................ .......................................",
"........................ .......................................",
"........................ .......................................",
"........................ .......................................",
"........................ .......................................",
"........................ .......................................",
"........................ .......................................",
"........................ .......................................",
"........................ .......................................",
"........................ .......................................",
"......................... ......................................",
"......................... ......................................",
"......................... ......................................",
"......................... ......................................",
".........................        ...............................",
".................................                    ...........",
"................................................................",
"................................................................",
"................................................................",
"................................................................",
"................................................................",
"................................................................"
};
