/* XPM */
static char *no_holder[] = {
/* columns rows colors chars-per-pixel */
"64 64 6 1 ",
"  c #101830",
". c #2B4C8C",
"X c #3A62B0",
"o c #33559A",
"L c #FFFFFF",
"K c #000000",
/* pixels */
"oooo.ooXXoo oo..oooooXXo ooXXXooooXXXoo oXXooooo..oo ooXXoo.ooo ",
"oooX...oooX oooXXooooXoo ooooXooooXoooo ooXooooXXooo Xooo...Xoo ",
"                                                                ",
"oooooo oooooooooooooo oo.oooooooooooooo.oo oooooooooooooo oooooo",
"ooX..o ooo.........oo o.o.o....oo....o.o.o oo.........ooo o..Xoo",
"oX..oo oooooX.Xoooooo o..ooooXooooXoooo..o ooooooX.Xooooo oo..Xo",
"oooooo oooooooooooooo oo..oooooooooooo..oo oooooooooooooo oooooo",
"                                                                ",
" .ooooooooX oooooooooooo oooooooooooooo oooooooooooo Xoooooooo.o",
" .....oooXX .oo.Xoooo..o oo.o..oo..o.oo o..ooooX.oo. XXooo.....o",
" oooo..XXXo ooXXKKKKKKKK o....oooo....o KKKKKKKKXXoo oXXX..ooooo",
" oooooooooo ooXoKLLLLLLK oooo......oooo KLLLLLLKoXoo ooooooooooo",
"                KLLLLLLK                KLLLLLLK                ",
"oooooo oooo..oooKLLLLLLK.oooooooooooooo.KLLLLLLKooo..oooo oooooo",
"oooXoo oo.o.ooXXKLLLLLLK.oXX.XXooXX.XXo.KLLLLLLKXXoo.o.oo ooXooo",
"..X..o oooo..XXoKLLLLLLK......oooo......KLLLLLLKoXX..oooo o..X..",
"ooooo. oooooooooKLLLLLLKooooooooooKKKKKKKLLLLLLKooooooooo .ooooo",
"                KLLLLLLK          KLLLLLLLLLLLLK                ",
"ooooo.ooo.o ooooKLLLLLLK o..ooooooKLLLLLLLLLLLLKoooo o.ooo.oooo ",
"oooo.Xooooo ooooKLLLLLLK oooXo.oo.KLLLLLLLLLLLLKoooo oooooX.ooo ",
"ooo.X.oXXXo oo..KLLLLLLK ooXX..oo.KLLLLLLLLLLLLK..oo oXXXo.X.oo ",
"oooo.ooooXo ooo.KLLLLLLK o..o.ooooKLLLLLLLLLLLLK.ooo oXoooo.ooo ",
"                KLLLLLLK    KKKKKKKLLLLLLLLLLLLK                ",
"oooooo oooooooooKLLLLLLK...oKLLLLLLKKKKKKLLLLLLKooooooooo oooooo",
"oo.ooo ooooo.oX.KLLLLLLKooXXKLLLLLLKXXooKLLLLLLK.Xo.ooooo ooo.oo",
"XX..oo oo.o..oo.KLLLLLLKXXXoKLLLLLLKoXXXKLLLLLLK.oo..o.oo oo..XX",
"Xooooo oooooooooKLLLLLLKXoooKLLLLLLKoooXKLLLLLLKooooooooo oooooX",
"                KLLLLLLK    KLLLLLLK    KLLLLLLK                ",
" oo...oooXo ooooKLLLLLLKKKKKKLLLLLLKo...KLLLLLLKoooo oXooo...ooo",
" .oo..Xoooo ooX.KLLLLLLLLLLLLKKKKKKK...oKLLLLLLK.Xoo ooooX..oo..",
" ........oo ooooKLLLLLLLLLLLLKo oo......KLLLLLLKoooo oo........o",
" ooooooo... .o..KLLLLLLLLLLLLK. o....o..KLLLLLLK.oo. oo.oooooooo",
"                KLLLLLLLLLLLLK          KLLLLLLK                ",
"o....o ..oooooooKLLLLLLLLLLLLKoooo......KLLLLLLKooooooo.. .....o",
"o.oo.. oooooooX.KLLLLLLLLLLLLKoo.......oKLLLLLLK.Xooooooo ..oo..",
"ooo... ooXooooooKLLLLLLKKKKKKKooooXoo...KLLLLLLKooooooXoo ...ooo",
"                KLLLLLLK                KLLLLLLK                ",
"Xoooooooooo ooooKLLLLLLKXooo... o...oooXKLLLLLLKoooo oooooooooo ",
"XX..ooooo.o .oo.KLLLLLLKXXXooo. ..oooXXXKLLLLLLK.oo. o.ooooo..X ",
"oo.oooooooo .oX.KLLLLLLKooXXXo. ..oXXXooKLLLLLLK.Xo. oooooooo.o ",
"ooooooooooo ooooKLLLLLLK...oooo ooooo...KLLLLLLKoooo oooooooooo ",
"                KLLLLLLK                KLLLLLLK                ",
"oooo.o ooXooooo.KLLLLLLKoo..o.oooo.o..ooKLLLLLLK.oooooXoo o.oooo",
"ooo.X. XXXoooo..KLLLLLLKoooXX..oo..XXoooKLLLLLLK..ooooXXX .X.ooo",
"oooo.X oooooooooKLLLLLLKooooXo.oo.oXooooKLLLLLLKooooooooo X.oooo",
"ooooo. oo.ooooooKLLLLLLKoo..oooooooo..ooKLLLLLLKoooooo.oo .ooooo",
"                KLLLLLLK                KLLLLLLK                ",
" oooo.ooooo ooooKLLLLLLKooooooo ooooooooKLLLLLLKoooo ooooo.ooooo",
" .X..oooooo .XXoKLLLLLLK......o oo......KLLLLLLKoXX. oooooo..X..",
" ooXooooo.o ooXXKLLLLLLK.oXX.XX oXX.XXo.KLLLLLLKXXoo o.oooooXooo",
" oooooooooo .oooKLLLLLLK.oooooo ooooooo.KLLLLLLKooo. ooooooooooo",
"                KLLLLLLK                KLLLLLLK                ",
"oooooo oooooooXoKLLLLLLKooooo......oooooKLLLLLLKoXooooooo oooooo",
"ooooo. XXXooooXXKKKKKKKKoo....oooo....ooKKKKKKKKXXooooXXX .ooooo",
"o..... ooXXo.oo.Xoooo .oooo.o..oo..o.oooo. ooooX.oo.oXXoo .....o",
"o.oooo oooXoooooooooo oooooooooooooooooooo ooooooooooXooo oooo.o",
"                                                                ",
"ooooooooooo oooooooooooo..ooooo oooooo..oooooooooooo oooooooooo ",
"oX..ooooooo X.Xoooooooo..ooooXo ooXoooo..ooooooooX.X ooooooo..X ",
"ooX..ooooo. .......oooo.o.o.... o....o.o.oooo....... .ooooo..Xo ",
"ooooooooooo oooooooooooo.oooooo ooooooo.oooooooooooo oooooooooo ",
"                                                                ",
"oooX...oooXooooXXoooo oooooooXooooXooooooo ooooXXooooXooo ..Xooo",
"oooo.ooXXooooo..ooooo XooooXXXooooXXXooooX ooooo..oooooXX o.oooo"
};
