/* XPM */
static char *_e013f84ad5c4005fdf4dd0663c338c0B6ryzGKgchdsWzhM[] = {
/* columns rows colors chars-per-pixel */
"64 64 2 1 ",
"  c black",
". c #FBF236",
/* pixels */
"................................................................",
"................................................. ..............",
"................................................. ..............",
"................................................. ..............",
"................................................. ..............",
"................................................. ..............",
"................................................. ..............",
"................................................. ..............",
"................................................. ..............",
"................................................. ..............",
"................................................. ..............",
"............... ................................. ..............",
"...............  ................................ ..............",
"............... . ............................... ..............",
"............... ..  ............................. ..............",
"............... .... ............................ ..............",
"............... ..... ........................... ..............",
"............... ...... .......................... ..............",
"............... ....... ......................... ..............",
"............... ........ ........................ ..............",
"............... ......... ....................... ..............",
"............... .......... ...................... ..............",
"............... ........... ..................... ..............",
"............... ............ .................... ..............",
"............... .............  .................. ..............",
"............... ............... ................. ..............",
"............... ................ ................ ..............",
"............... ................ ................ ..............",
"............... ................. ............... ..............",
"............... .................. .............. ..............",
"............... ................... ............. ..............",
"............... ....................  ........... ..............",
"............... ...................... .......... ..............",
"............... ....................... ......... ..............",
"............... ........................ ........ ..............",
"............... ......................... ....... ..............",
"............... .......................... ...... ..............",
"............... ...........................  .... ..............",
"............... .............................  .. ..............",
"............... .............................. .. ..............",
"............... ............................... . ..............",
"............... ............................... . ..............",
"............... ................................  ..............",
"............... ................................  ..............",
"............... ................................. ..............",
"............... ................................................",
"............... ................................................",
"............... ................................................",
"............... ................................................",
"............... ................................................",
"................................................................",
"................................................................",
"................................................................",
"................................................................",
"................................................................",
"................................................................",
"................................................................",
"................................................................",
"................................................................",
"................................................................",
"................................................................",
"................................................................",
"................................................................",
"................................................................"
};
