/* XPM */
static char *so_holder[] = {
/* columns rows colors chars-per-pixel */
"64 64 6 1 ",
"  c #102010",
". c #2E7D32",
"X c #43A047",
"o c #388E3C",
"L c #FFFFFF",
"K c #000000",
/* pixels */
"oooo.ooXXoo oo..oooooXXo ooXXXooooXXXoo oXXooooo..oo ooXXoo.ooo ",
"oooX...oooX oooXXooooXoo ooooXooooXoooo ooXooooXXooo Xooo...Xoo ",
"                                                                ",
"oooooo oooooooooooooo oo.oooooooooooooo.oo oooooooooooooo oooooo",
"ooX..o ooo.........oo o.o.o....oo....o.o.o oo.........ooo o..Xoo",
"oX..oo oooooX.Xoooooo o..ooooXooooXoooo..o ooooooX.Xooooo oo..Xo",
"oooooo oooooooooooooo oo..oooooooooooo..oo oooooooooooooo oooooo",
"                                                                ",
" .ooooooooX oooooooooooo oooooooooooooo oooooooooooo Xoooooooo.o",
" .....oooXX .oo.Xoooo..o oo.o..oo..o.oo o..ooooX.oo. XXooo.....o",
" oooo..XXXo ooXXKKKKKKKKKKKKKKKKKKKKKKKKKK....X.XXoo oXXX..ooooo",
" oooooooooo ooXoKLLLLLLLLLLLLLLLLLLLLLLLLKooooXooXoo ooooooooooo",
"                KLLLLLLLLLLLLLLLLLLLLLLLLK                      ",
"oooooo oooo..oooKLLLLLLLLLLLLLLLLLLLLLLLLK oooooooo..oooo oooooo",
"oooXoo oo.o.ooXXKLLLLLLLLLLLLLLLLLLLLLLLLK oooXXXXoo.o.oo ooXooo",
"..X..o oooo..XXoKLLLLLLLLLLLLLLLLLLLLLLLLK oo.oooXX..oooo o..X..",
"ooooo. oooooooooKLLLLLLLLLLLLLLLLLLLLLLLLKKKKKKKooooooooo .ooooo",
"                KKKKKKKKKKKKKKKKKKKKKKKKKLLLLLLK                ",
"ooooo.ooo.o oooooooooooo o..oooooooo..o KLLLLLLKoooo o.ooo.oooo ",
"oooo.Xooooo ooooo.oooooo oooXo.oo.oXooo KLLLLLLKoooo oooooX.ooo ",
"ooo.X.oXXXo oo..o.oooXoo ooXX..oo..XXoo KLLLLLLK..oo oXXXo.X.oo ",
"oooo.ooooXo ooo.o...oXXo o..o.oooo.o..o KLLLLLLK.ooo oXoooo.ooo ",
"                                        KLLLLLLK                ",
"oooooo oooooooooooooo oo...oooooooooo...KLLLLLLKooooooooo oooooo",
"oo.ooo ooooo.oX.XXXoo ooooXXXo....oXXXooKLLLLLLK.Xo.ooooo ooo.oo",
"XX..oo oo.o..oo..oXXo ooXXXooo....oooXXXKLLLLLLK.oo..o.oo oo..XX",
"Xooooo ooooooooooo.oo oXXooo...oo...oooXKLLLLLLKooooooooo oooooX",
"                                        KLLLLLLK                ",
" oo...oooXo ooooooooooKKKKKKKKKKKKKKKKKKKLLLLLLKoooo oXooo...ooo",
" .oo..Xoooo ooX..ooX.XKLLLLLLLLLLLLLLLLLLKKKKKKK.Xoo ooooX..oo..",
" ........oo ooooooooooKLLLLLLLLLLLLLLLLLLKoooooooooo oo........o",
" ooooooo... .o........KLLLLLLLLLLLLLLLLLLKo......oo. oo.oooooooo",
"                      KLLLLLLLLLLLLLLLLLLK                      ",
"o....o ..oooooooooooo KLLLLLLLLLLLLLLLLLLK oooooooooooo.. .....o",
"o.oo.. oooooooX.KKKKKKKLLLLLLLLLLLLLLLLLLK .Xoo..Xooooooo ..oo..",
"ooo... ooXooooooKLLLLLLKKKKKKKKKKKKKKKKKKK oooooooooooXoo ...ooo",
"                KLLLLLLK                                        ",
"Xoooooooooo ooooKLLLLLLKXooo... o...oooXXoooo.oooooo oooooooooo ",
"XX..ooooo.o .oo.KLLLLLLKXXXooo. ..oooXXXooooXXo..oo. o.ooooo..X ",
"oo.oooooooo .oX.KLLLLLLKooXXXo. ..oXXXoooooooXXX.Xo. oooooooo.o ",
"ooooooooooo ooooKLLLLLLK...oooo ooooo...oooooooooooo oooooooooo ",
"                KLLLLLLK                                        ",
"oooo.o ooXooooo.KLLLLLLKoo..o.oooo.o..oooX o...o.oooooXoo o.oooo",
"ooo.X. XXXoooo..KLLLLLLKoooXX..oo..XXooooo ooo.o..ooooXXX .X.ooo",
"oooo.X oooooooooKLLLLLLKooooXo.oo.oXoooooo ooo.oooooooooo X.oooo",
"ooooo. oo.ooooooKLLLLLLKoo..oooooooo..oooo ooooooooooo.oo .ooooo",
"                KLLLLLLKKKKKKKKKKKKKKKKKKKKKKKKK                ",
" oooo.ooooo ooooKKKKKKKLLLLLLLLLLLLLLLLLLLLLLLLKoooo ooooo.ooooo",
" .X..oooooo .XXooo.oooKLLLLLLLLLLLLLLLLLLLLLLLLKoXX. oooooo..X..",
" ooXooooo.o ooXXXXooooKLLLLLLLLLLLLLLLLLLLLLLLLKXXoo o.oooooXooo",
" oooooooooo .oooooooooKLLLLLLLLLLLLLLLLLLLLLLLLKooo. ooooooooooo",
"                      KLLLLLLLLLLLLLLLLLLLLLLLLK                ",
"oooooo oooooooXooXooo KLLLLLLLLLLLLLLLLLLLLLLLLKoXooooooo oooooo",
"ooooo. XXXooooXX.X... KKKKKKKKKKKKKKKKKKKKKKKKKKXXooooXXX .ooooo",
"o..... ooXXo.oo.Xoooo .oooo.o..oo..o.oooo. ooooX.oo.oXXoo .....o",
"o.oooo oooXoooooooooo oooooooooooooooooooo ooooooooooXooo oooo.o",
"                                                                ",
"ooooooooooo oooooooooooo..ooooo oooooo..oooooooooooo oooooooooo ",
"oX..ooooooo X.Xoooooooo..ooooXo ooXoooo..ooooooooX.X ooooooo..X ",
"ooX..ooooo. .......oooo.o.o.... o....o.o.oooo....... .ooooo..Xo ",
"ooooooooooo oooooooooooo.oooooo ooooooo.oooooooooooo oooooooooo ",
"                                                                ",
"oooX...oooXooooXXoooo oooooooXooooXooooooo ooooXXooooXooo ..Xooo",
"oooo.ooXXooooo..ooooo XooooXXXooooXXXooooX ooooo..oooooXX o.oooo"
};
