/* XPM */
static char *_86426cebe4d424dac5819ff5c1a695bADMBEm3KeYRbSbtP[] = {
/* columns rows colors chars-per-pixel */
"64 64 2 1 ",
"  c black",
". c #FBF236",
/* pixels */
"................................................................",
"................................................................",
"................................................................",
"................................................................",
"................................................................",
"................................................................",
"................................................................",
"................................................................",
"................................................................",
"................................................................",
"................................................................",
"................................................................",
"................................................................",
"..................                ..............................",
"..............    ................      ........................",
"............. ..................................................",
"..........   ...................................................",
"......... ......................................................",
"........  ......................................................",
"........ .......................................................",
"........ .......................................................",
"......... ......................................................",
"......... ......................................................",
"......... ......................................................",
".......... .....................................................",
"...........  ...................................................",
"............. ..................................................",
"............. ..................................................",
"..............  ................................................",
"................ ...............................................",
"................. ..............................................",
"..................    ..........................................",
"......................  ........................................",
"........................  ......................................",
"..........................    ..................................",
"..............................    ..............................",
"..................................    ..........................",
"......................................   .......................",
".........................................  .....................",
"..........................................  ....................",
"........................................... ....................",
"........................................... ....................",
"........................................... ....................",
".......................................... .....................",
".......................................... .....................",
"......................................... ......................",
"......................................... ......................",
"......................................... ......................",
"........................................ .......................",
"....................................... ........................",
".....................................  .........................",
".................................... ...........................",
".................................   ............................",
".............................    ...............................",
".........                    ...................................",
"................................................................",
"................................................................",
"................................................................",
"................................................................",
"................................................................",
"................................................................",
"................................................................",
"................................................................",
"................................................................"
};
