/* XPM */
static char *dfdf7e7ef7874e4f9f6753234cab5622yj4NdXQQyj8YucJZ[] = {
/* columns rows colors chars-per-pixel */
"64 64 4 1 ",
"  c black",
". c #4C241D",
"X c #6F342A",
"o c #663931",
/* pixels */
" ooo.ooXXoo oo..oooooXXo ooXXXooooXXXoo oXXooooo..oo ooXXoo.oooo",
" ooX...oooX oooXXooooXoo ooooXooooXoooo ooXooooXXooo Xooo...Xooo",
"                                                                ",
"oooooo oooooooooooooo oo.oooooooooooooo.oo oooooooooooooo oooooo",
"ooX..o ooo.........oo o.o.o....oo....o.o.o oo.........ooo o..Xoo",
"oX..oo oooooX.Xoooooo o..ooooXooooXoooo..o ooooooX.Xooooo oo..Xo",
"oooooo oooooooooooooo oo..oooooooooooo..oo oooooooooooooo oooooo",
"                                                                ",
"o.ooooooooX oooooooooooo oooooooooooooo oooooooooooo Xoooooooo. ",
"o.....oooXX .oo.Xoooo..o oo.o..oo..o.oo o..ooooX.oo. XXooo..... ",
"ooooo..XXXo ooXX.X....oo o....oooo....o oo....X.XXoo oXXX..oooo ",
"ooooooooooo ooXooXoooooo oooo......oooo ooooooXooXoo oooooooooo ",
"                                                                ",
"oooooo oooo..oooooooo o..oooooooooooooo..o oooooooo..oooo oooooo",
"oooXoo oo.o.ooXXXXooo oo.oXX.XXooXX.XXo.oo oooXXXXoo.o.oo ooXooo",
"..X..o oooo..XXooo.oo o.......oooo.......o oo.oooXX..oooo o..X..",
"ooooo. ooooooooo...oo oooooooooooooooooooo oo...ooooooooo .ooooo",
"                                                                ",
" oooo.ooo.o oooooooooooo o..oooooooo..o oooooooooooo o.ooo.ooooo",
" ooo.Xooooo ooooo.oooooo oooXo.oo.oXooo oooooo.ooooo oooooX.oooo",
" oo.X.oXXXo oo..o.oooXoo ooXX..oo..XXoo ooXooo.o..oo oXXXo.X.ooo",
" ooo.ooooXo ooo.o...oXXo o..o.oooo.o..o oXXo...o.ooo oXoooo.oooo",
"                                                                ",
"oooooo oooooooooooooo oo...oooooooooo...oo oooooooooooooo oooooo",
"oo.ooo ooooo.oX.XXXoo ooooXXXo....oXXXoooo ooXXX.Xo.ooooo ooo.oo",
"XX..oo oo.o..oo..oXXo ooXXXooo....oooXXXoo oXXo..oo..o.oo oo..XX",
"Xooooo ooooooooooo.oo oXXooo...oo...oooXXo oo.ooooooooooo oooooX",
"                                                                ",
"ooo...oooXo ooooooooooo....ooXoo oXoo....ooooooooooo oXooo...oo ",
"..oo..Xoooo ooX..ooX.Xooo....... ......oooX.Xoo..Xoo ooooX..oo. ",
"o........oo oooooooooo........oo o.oo.....oooooooooo oo........ ",
"oooooooo.oo .oo......oo...o....o ..o.ooooo........o. ...ooooooo ",
"                                                                ",
"o..... ..oooooooooooo .o......oooo...o.... oooooooooooo.. o....o",
"..oo.. oooooooX..ooX. ooo.......oo.....ooo .Xoo..Xooooooo ..oo.o",
"ooo... ooXooooooooooo o....ooXooooXoo....o oooooooooooXoo ...ooo",
"                                                                ",
" oooooooooo oooooo.ooooXXooo...o ...oooXXoooo.oooooo ooooooooooX",
" X..ooooo.o .oo..oXXooooXXXooo.. .oooXXXooooXXo..oo. o.ooooo..XX",
" o.oooooooo .oX.XXXoooooooXXXo.. .oXXXoooooooXXX.Xo. oooooooo.oo",
" oooooooooo oooooooooooo...ooooo oooo...oooooooooooo ooooooooooo",
"                                                                ",
"oooo.o ooXooooo.o...o Xooo..o.oooo.o..oooX o...o.oooooXoo o.oooo",
"ooo.X. XXXoooo..o.ooo oooooXX..oo..XXooooo ooo.o..ooooXXX .X.ooo",
"oooo.X oooooooooo.ooo ooooooXo.oo.oXoooooo ooo.oooooooooo X.oooo",
"ooooo. oo.ooooooooooo oooo..oooooooo..oooo ooooooooooo.oo .ooooo",
"                                                                ",
"ooooo.ooooo oooo...ooooooooooooo oooooooooooo...oooo ooooo.oooo ",
"..X..oooooo .XXooo.oooo.......oo o.......oooo.oooXX. oooooo..X. ",
"oooXooooo.o ooXXXXoooooo.oXX.XXo XX.XXo.ooooooXXXXoo o.oooooXoo ",
"ooooooooooo .oooooooooo..ooooooo oooooo..oooooooooo. oooooooooo ",
"                                                                ",
"oooooo oooooooXooXooo ooooooo......ooooooo oooXooXooooooo oooooo",
"ooooo. XXXooooXX.X... oooo....oooo....oooo ...X.XXooooXXX .ooooo",
"o..... ooXXo.oo.Xoooo .oooo.o..oo..o.oooo. ooooX.oo.oXXoo .....o",
"o.oooo oooXoooooooooo oooooooooooooooooooo ooooooooooXooo oooo.o",
"                                                                ",
" oooooooooo oooooooooooo..oooooo ooooo..oooooooooooo ooooooooooo",
" X..ooooooo X.Xoooooooo..ooooXoo oXoooo..ooooooooX.X ooooooo..Xo",
" oX..ooooo. .......oooo.o.o....o ....o.o.oooo....... .ooooo..Xoo",
" oooooooooo oooooooooooo.ooooooo oooooo.oooooooooooo ooooooooooo",
"                                                                ",
"oooX.. oooXooooXXoooo oooooooXooooXooooooo ooooXXooooXooo...Xooo",
"oooo.o XXooooo..ooooo XooooXXXooooXXXooooX ooooo..oooooXXoo.oooo"
};
