/* XPM */
static char *we_holder[] = {
/* columns rows colors chars-per-pixel */
"64 64 6 1 ",
"  c #281030",
". c #7B1FA2",
"X c #9C27B0",
"o c #8E24AA",
"L c #FFFFFF",
"K c #000000",
/* pixels */
"oooo.ooXXoo oo..oooooXXo ooXXXooooXXXoo oXXooooo..oo ooXXoo.ooo ",
"oooX...oooX oooXXooooXoo ooooXooooXoooo ooXooooXXooo Xooo...Xoo ",
"                                                                ",
"oooooo oooooooooooooo oo.oooooooooooooo.oo oooooooooooooo oooooo",
"ooX..o ooo.........oo o.o.o....oo....o.o.o oo.........ooo o..Xoo",
"oX..oo oooooX.Xoooooo o..ooooXooooXoooo..o ooooooX.Xooooo oo..Xo",
"oooooo oooooooooooooo oo..oooooooooooo..oo oooooooooooooo oooooo",
"                                                                ",
" .ooooooooX oooooooooooo oooooooooooooo oooooooooooo Xoooooooo.o",
" .....oooXX .oo.Xoooo..o oo.o..oo..o.oo o..ooooX.oo. XXooo.....o",
" oooo..XXXo ooXXKKKKKKKK o....oooo....o KKKKKKKKXXoo oXXX..ooooo",
" oooooooooo ooXoKLLLLLLK oooo......oooo KLLLLLLKoXoo ooooooooooo",
"                KLLLLLLK                KLLLLLLK                ",
"oooooo oooo..oooKLLLLLLK.oooooooooooooo.KLLLLLLKooo..oooo oooooo",
"oooXoo oo.o.ooXXKLLLLLLK.oXX.XXooXX.XXo.KLLLLLLKXXoo.o.oo ooXooo",
"..X..o oooo..XXoKLLLLLLK......oooo......KLLLLLLKoXX..oooo o..X..",
"ooooo. oooooooooKLLLLLLKooooooooooooooooKLLLLLLKooooooooo .ooooo",
"                KLLLLLLK                KLLLLLLK                ",
"ooooo.ooo.o ooooKLLLLLLK o..oooooooo..o KLLLLLLKoooo o.ooo.oooo ",
"oooo.Xooooo ooooKLLLLLLK oooXo.oo.oXooo KLLLLLLKoooo oooooX.ooo ",
"ooo.X.oXXXo oo..KLLLLLLK ooXX..oo..XXoo KLLLLLLK..oo oXXXo.X.oo ",
"oooo.ooooXo ooo.KLLLLLLK o..o.oooo.o..o KLLLLLLK.ooo oXoooo.ooo ",
"                KLLLLLLK                KLLLLLLK                ",
"oooooo oooooooooKLLLLLLK...oooooooooo...KLLLLLLKooooooooo oooooo",
"oo.ooo ooooo.oX.KLLLLLLKooXXXo....oXXXooKLLLLLLK.Xo.ooooo ooo.oo",
"XX..oo oo.o..oo.KLLLLLLKXXXooo....oooXXXKLLLLLLK.oo..o.oo oo..XX",
"Xooooo oooooooooKLLLLLLKXooo...oo...oooXKLLLLLLKooooooooo oooooX",
"                KLLLLLLK                KLLLLLLK                ",
" oo...oooXo ooooKLLLLLLK...oKKKKKKKKo...KLLLLLLKoooo oXooo...ooo",
" .oo..Xoooo ooX.KLLLLLLKo...KLLLLLLK...oKLLLLLLK.Xoo ooooX..oo..",
" ........oo ooooKLLLLLLK...oKLLLLLLK....KLLLLLLKoooo oo........o",
" ooooooo... .o..KLLLLLLKooo.KLLLLLLK.o..KLLLLLLK.oo. oo.oooooooo",
"                KLLLLLLK    KLLLLLLK    KLLLLLLK                ",
"o....o ..oooooooKLLLLLLK..o.KLLLLLLK....KLLLLLLKooooooo.. .....o",
"o.oo.. oooooooX.KLLLLLLKo...KLLLLLLK...oKLLLLLLK.Xooooooo ..oo..",
"ooo... ooXooooooKLLLLLLK...oKLLLLLLKo...KLLLLLLKooooooXoo ...ooo",
"                KLLLLLLK    KLLLLLLK    KLLLLLLK                ",
"Xoooooooooo ooooKLLLLLLKXoooKLLLLLLKoooXKLLLLLLKoooo oooooooooo ",
"XX..ooooo.o .oo.KLLLLLLKXXXoKLLLLLLKoXXXKLLLLLLK.oo. o.ooooo..X ",
"oo.oooooooo .oX.KLLLLLLKooXXKLLLLLLKXXooKLLLLLLK.Xo. oooooooo.o ",
"ooooooooooo ooooKLLLLLLKKKKKKLLLLLLKKKKKKLLLLLLKoooo oooooooooo ",
"                KLLLLLLLLLLLLKKKKKKLLLLLLLLLLLLK                ",
"oooo.o ooXooooo.KLLLLLLLLLLLLKooooKLLLLLLLLLLLLK.oooooXoo o.oooo",
"ooo.X. XXXoooo..KLLLLLLLLLLLLK.oo.KLLLLLLLLLLLLK..ooooXXX .X.ooo",
"oooo.X oooooooooKLLLLLLLLLLLLK.oo.KLLLLLLLLLLLLKooooooooo X.oooo",
"ooooo. oo.ooooooKLLLLLLLLLLLLKooooKLLLLLLLLLLLLKoooooo.oo .ooooo",
"                KLLLLLLLLLLLLK    KLLLLLLLLLLLLK                ",
" oooo.ooooo ooooKLLLLLLKKKKKKKo ooKKKKKKKLLLLLLKoooo ooooo.ooooo",
" .X..oooooo .XXoKLLLLLLK......o oo......KLLLLLLKoXX. oooooo..X..",
" ooXooooo.o ooXXKLLLLLLK.oXX.XX oXX.XXo.KLLLLLLKXXoo o.oooooXooo",
" oooooooooo .oooKLLLLLLK.oooooo ooooooo.KLLLLLLKooo. ooooooooooo",
"                KLLLLLLK                KLLLLLLK                ",
"oooooo oooooooXoKLLLLLLKooooo......oooooKLLLLLLKoXooooooo oooooo",
"ooooo. XXXooooXXKKKKKKKKoo....oooo....ooKKKKKKKKXXooooXXX .ooooo",
"o..... ooXXo.oo.Xoooo .oooo.o..oo..o.oooo. ooooX.oo.oXXoo .....o",
"o.oooo oooXoooooooooo oooooooooooooooooooo ooooooooooXooo oooo.o",
"                                                                ",
"ooooooooooo oooooooooooo..ooooo oooooo..oooooooooooo oooooooooo ",
"oX..ooooooo X.Xoooooooo..ooooXo ooXoooo..ooooooooX.X ooooooo..X ",
"ooX..ooooo. .......oooo.o.o.... o....o.o.oooo....... .ooooo..Xo ",
"ooooooooooo oooooooooooo.oooooo ooooooo.oooooooooooo oooooooooo ",
"                                                                ",
"oooX...oooXooooXXoooo oooooooXooooXooooooo ooooXXooooXooo ..Xooo",
"oooo.ooXXooooo..ooooo XooooXXXooooXXXooooX ooooo..oooooXX o.oooo"
};
