/* XPM */
static char *_b09120833f64e39940e2a5b63589645YKLU0RamWi4WCYZV[] = {
/* columns rows colors chars-per-pixel */
"64 64 2 1 ",
"  c black",
". c #FBF236",
/* pixels */
"................................................................",
"................................................................",
"................................................................",
"................................................................",
"................................................................",
"................................................................",
"................................................................",
"................................................................",
"................................................................",
"................................................................",
"................................................................",
"........  ......................................................",
".......... .....................................................",
"........... ....................................................",
"........... ....................................................",
"............  ......................  ..........................",
".............. .....................  ..........................",
".............. ..................... . ................... .....",
"............... ...................  .. .................  .....",
"............... ................... .... ................ ......",
"................ ................. ..... ................ ......",
"................. ................ ..... ............... .......",
".................. ............... ...... .............. .......",
".................. ............... ...... .............. .......",
"................... ............. ........ ............. .......",
"................... ............. ........ ............. .......",
".................... ............ ......... ........... ........",
".................... ............ ......... ........... ........",
"..................... .......... ........... .......... ........",
"...................... ......... ........... .......... ........",
"...................... ........ ............. ........ .........",
"...................... ........ ............. ........ .........",
"....................... ....... .............. ....... .........",
"........................ ..... ................ ...... .........",
"........................ ..... ................ ...... .........",
"......................... ... .................. .... ..........",
"......................... ... .................. .... ..........",
".......................... .. ................... ... ..........",
"...........................  .................... ... ..........",
"...........................  ..................... . ...........",
"............................ ..................... . ...........",
"...................................................  ...........",
"...................................................  ...........",
"................................................................",
"................................................................",
"................................................................",
"................................................................",
"................................................................",
"................................................................",
"................................................................",
"................................................................",
"................................................................",
"................................................................",
"................................................................",
"................................................................",
"................................................................",
"................................................................",
"................................................................",
"................................................................",
"................................................................",
"................................................................",
"................................................................",
"................................................................",
"................................................................"
};
